src/pos-icons/christianity.svg

<svg height="24" viewBox="0 0 24 24" width="24" xmlns="http://www.w3.org/2000/svg"><path d="m10.5 2h3v6h5.5v3h-5.5v11h-3v-11h-5.5v-3h5.5z"/></svg>

<?xml version="1.0" encoding="UTF-8"?><!DOCTYPE svg PUBLIC "-//W3C//DTD SVG 1.1//EN" "http://www.w3.org/Graphics/SVG/1.1/DTD/svg11.dtd"><svg xmlns="http://www.w3.org/2000/svg" xmlns:xlink="http://www.w3.org/1999/xlink" version="1.1" id="mdi-christianity" width="24" height="24" viewBox="0 0 24 24"><path d="M10.5,2H13.5V8H19V11H13.5V22H10.5V11H5V8H10.5V2Z" /></svg>
